!!!COM: Jules Massenet
!!!CNT: Francais
!!!TXO: Francais
!!!OTL: Le Portrait d'une Infant
!!!LYR: Pierre de Ronsard
!!!ENC: Jacob Pegg
!!!YOR: Romantic French Song 1830-1870 - David Tunley, ed.,
!!!YOR: New York: Garland Publishing, Inc., 1995, Vol. 6
!!!ODT: 1868/!!NB: Vocal melody and text only encoded.
!!NB: First instance of melodic material only encoded.
**kern	**silbe
*clef G2	*
*k[b-e-a-d-]	*
*M3/8	*
!!created: 12/20/03 15:56
!!proofed and posted: 1/22/04 0:27
!!edit time: 43 min.
=7	=7
{(8cc	{Quand
8dd-)	|
8b-	je
=8	=8
(8b-	voy
8cc)	|
8a-	tant
=9	=9
(8a-	de
8b-)	|
8e-	cou-
=10	=10
(16e-	-leurs
16f)}	|}
{16g	{Et
16a-	de
16b-}	fleurs}
16r	.
=11	=11
{8cc	{Qui
8dd-	es-
8b-	-mail-
=12	=12
8b-	-lent
8cc	un
8ff	ri-
=13	=13
(4cc	-va-
16b-T	|
16a-	|
=14	=14
4b-)}	-ge,}
8r	.
=15	=15
4.r	.
=16	=16
4.r	.
=17	=17
{(8ee-	{Je
8b-)	|
16cc	pen-
16b-	-se
=18	=18
(4a-	voir
8e-)	|
=19	=19
(8ee-	le
8b-)	|
(16cc	beau
16b-)	|
=20	=20
4a-}	teint}
8r	.
=21	=21
{8f	{Qui
8g	est
8a-	peint
=22	=22
8a-	Si
8b-	ver-
8cc	-meil
=23	=23
8cc	en
8dd-	son
8ff	vi-
=24	=24
(4.ff	-sa-
=25	=25
4een;)}	-ge.}
8r;	.
=26	=26
{(8ee-	{Je
8cc	pen-
8ff	-se
=27	=27
8ee-	voir
8dd-	le
8a-)	beau
=28	=28
(8b-	teint
8dd-	Qui
8ee-	est
=29	=29
8dd-	peint
8cc	Si
8b-)	ver-
=30	=30
(8a-	-meil
8b-)	|
8cc	en
=31	=31
(8cc	son
8dd-)	|
(8ff	vi-
=32	=32
4e-	-sa-
8ee-)	|
=33	=33
4a-}	-ge.}
8r	.
!!34-66 repeat	
=67	=67
8r	.
8r	.
{8f	{Je
=68	=68
[4.ff	sens,
=69	=69
8ff]}	|}
8r	.
{16f	{La
16f	dou-
=70	=70
4ff	-ceur
8a-	de
=71	=71
(8b-	son
16cc)	|
16dd-	ha-
[8ee-	-lei-
=72	=72
(4.ee-]	|
=73	=73
[4.a-)	-ne!
=74	=74
4a-]}	|}
8r	.
*-	*-
